svgs/sharp-light/tally.svg

<svg xmlns="http://www.w3.org/2000/svg" viewBox="0 0 640 512"><!--! Font Awesome Pro 6.6.0 by @fontawesome - https://fontawesome.com License - https://fontawesome.com/license (Commercial License) Copyright 2024 Fonticons, Inc. --><path d="M144 32l0 16 0 249.8 96-32L240 48l0-16 32 0 0 16 0 207.1 96-32L368 48l0-16 32 0 0 16 0 164.5 96-32L496 48l0-16 32 0 0 16 0 121.8 74.9-25 15.2-5.1 10.1 30.4-15.2 5.1L528 203.5 528 464l0 16-32 0 0-16 0-249.8-96 32L400 464l0 16-32 0 0-16 0-207.1-96 32L272 464l0 16-32 0 0-16 0-164.5-96 32L144 464l0 16-32 0 0-16 0-121.8-74.9 25-15.2 5.1L11.8 341.9l15.2-5.1L112 308.5 112 48l0-16 32 0z"/></svg>

<svg xmlns="http://www.w3.org/2000/svg" viewBox="0 0 640 512"><!--! Font Awesome Pro 6.4.2 by @fontawesome - https://fontawesome.com License - https://fontawesome.com/license (Commercial License) Copyright 2023 Fonticons, Inc. --><path d="M144 32V48 297.8l96-32V48 32h32V48 255.1l96-32V48 32h32V48 212.5l96-32V48 32h32V48 169.8l74.9-25 15.2-5.1 10.1 30.4-15.2 5.1L528 203.5V464v16H496V464 214.2l-96 32V464v16H368V464 256.9l-96 32V464v16H240V464 299.5l-96 32V464v16H112V464 342.2l-74.9 25-15.2 5.1L11.8 341.9l15.2-5.1L112 308.5V48 32h32z"/></svg>
